!!!OTL: MEINE SCHUHE SIND ZERISSEN
!!!ARE: Europa, Mitteleuropa, Deutschland, Westerwald
!!!SCT: E1623
!!!YEM: Copyright 1995, estate of Helmut Schaffrath.
**kern
*ICvox
*Ivox
*M3/4
*k[f#]
*G:
{8d
8d
=1
4g
4dd
8b
8g
=2
4f#
4dd}
{8a
8f#
=3
4g
4dd
8b
8g
=4
2a}
{8a
8b
=5
8cc
8ee
4ee
4ee
=6
4dd
4b}
{4b
=7
8a
8dd
4dd
4cc
=8
2b}
==
!!!AGN: Staende -, Handwerker -, Gesellen - Lied
!!!ONB: ESAC (Essen Associative Code) Database: ERK3
!!!AMT: simple triple
!!!AIN: vox
!!!EED: Helmut Schaffrath
!!!EEV: 1.0
*-
